X: 128
T: Acorn Hill Breakdown
B: canberra pickers and fiddlers
B: old time tunes update
B: tunes
L:1/8
Q: 1/4=100
K:D
V:1 
e2-|fafe dcde| fded BcdB|A[FA]EF AFDF|[E3A3]F [E2A2][FA][EA]|
[D2A2] FG   AFEF  |GABd gfed|cdeg ageg|f[d2f2]g [d2f2]:|
|:de|fgaf dcde | fgaf bfag|fgaf dded|[B3e3][ce] [B4e4]|
efga gfed|Bcde dBGB|Ace^g a=geg|f[d2f2]g [d2f2]:|
% abcbook-tune_id 67a7d9ecd2ab9d2e53ebe8b2
% abcbook-tune_composer_id 
% abcbook-link-0 https://www.youtube.com/watch?v=bLawaT2k7WI
% abcbook-link-title-0 Hot Club of Cowtown - &quot;Acorn Hill Breakdown&quot; - Towne Crier Cafe 10.7.11
% abcbook-link-start-at-0 15
% abcbook-link-1 https://www.youtube.com/watch?v=AEbrhIu0bnY
% abcbook-link-title-1 Roger Collette - Acorn Hill Breakdown
% abcbook-boost 0
% abcbook-difficulty 0
% abcbook-tags old time tunes
% abcbook-tablature 
% abcbook-transpose 
% abcbook-tuning ADAE
% abcbook-lastupdated 1739066275269
% abcbook-src-url 
% abcbook-soundfonts 
% abcbook-repeats 1


